!!!OTL: ES JUG EIN JAEGER WILD UND SCHWEIN
!!!ARE: Europa, Mitteleuropa, Deutschland, Frankfurt, Odenthal
!!!SCT: E0019G
!!!YEM: Copyright 1995, estate of Helmut Schaffrath.
**kern
*ICvox
*Ivox
*M4/4
*k[b-]
*F:
{16f
16a
=1
4cc
4a
4ff
4dd
=2
4cc
8cc
8b-
2a}
=3
{4a
4a
4cc
4a
=4
4a
4g
2g}
=5
{8f
8g
4a
8g
8g
4g
=6
4f
4ff
2cc}
=7
{8a
8a
4a
4cc
8cc
8b-
=8
2a
4.r}
==
!!!AGN: Sage, Maerchen -, Zauber - Lied, Ballade ?
!!!ONB: ESAC (Essen Associative Code) Database: ERK1
!!!AMT: simple quadruple
!!!AIN: vox
!!!EED: Helmut Schaffrath
!!!EEV: 1.0
*-
